X: 1
T: Belladrum House
M: 4/4
L: 1/8
R: strathspey
K: Dmaj
|:DE/F/ G>B A<F F>B|A<F (3FED E2 E>F|DE/F/ G>B A<F (3FED|G>B A<F D2 D>A|
DE/F/ G>B A<F F>B|A<F (3FED E2 E>F|DE/F/ G>B A<F (3FED|G>B A<F D2-D>f|
e>A f>A g>A f>A|e>A g>f e2- e>f|e>A f>A g>A f>A|(3fga (3gfe d>A F<A|
d>f A>f d>f A>f|d>f A>f e2 e>g|(3fga (3gfe (3dcB (3AGF|G>B A<F E2 E>A|
